images/logo.svg

<svg width="130" height="47" viewBox="0 0 130 47" fill="none" xmlns="http://www.w3.org/2000/svg">
<path d="M41.8792 20.1378V24.4148H48.2187V41.4923H52.6535V24.4148H58.993V20.1378H41.8792ZM78.2556 21.378C76.9678 20.4903 75.0405 20.0185 72.663 20.0185C71.5916 20.0185 66.3131 20.1317 66.0906 20.1378L65.253 20.1552V41.4923H69.7166V33.753H72.567C74.2614 33.7904 75.9392 33.4179 77.4582 32.6667C79.5399 31.3716 80.7858 29.0799 80.7361 26.6325C80.7361 24.2442 79.9038 22.4756 78.2556 21.378ZM69.7053 24.4148C70.5778 24.4148 71.8944 24.3521 72.4362 24.3521C75.537 24.3521 76.1695 25.3017 76.1695 26.7238C76.1791 27.5551 75.7996 28.3436 75.1435 28.8563C74.2291 29.2967 73.2153 29.4934 72.2015 29.4246H69.7166L69.7044 24.4148H69.7053ZM90.2104 24.8639C88.0161 24.8473 85.9143 25.7464 84.4128 27.3436C82.8554 28.9363 82.0012 31.0844 82.0413 33.3091C82.0108 35.5451 82.865 37.7027 84.4189 39.3146C85.9204 40.9065 88.0196 41.803 90.2104 41.7882C91.7364 41.8074 93.2327 41.3722 94.5091 40.5375V41.2251H98.9152V25.2277L94.5772 26.132C93.2815 25.2834 91.7608 24.8412 90.2104 24.8639ZM93.1864 30.1923C93.9804 31.0348 94.4123 32.1532 94.3896 33.3091C94.4158 34.4736 93.983 35.6025 93.1864 36.4537C92.4658 37.2388 91.4485 37.6862 90.3814 37.6862C89.3152 37.6862 88.297 37.2388 87.5772 36.4537C86.7798 35.6008 86.3497 34.4693 86.3793 33.303C86.354 32.148 86.7842 31.0296 87.5772 30.1871C88.2874 29.3872 89.3074 28.9302 90.3788 28.9302C91.4502 28.9302 92.4701 29.3872 93.1803 30.1871L93.1864 30.1923ZM110.004 31.5971L108.293 30.9434C106.754 30.3742 106.754 30.2036 106.754 29.9712C106.754 29.6065 106.754 28.9355 108.716 28.9355C110.124 28.9389 111.511 29.2758 112.763 29.919L113.983 30.4882V25.8987L113.413 25.6881C111.884 25.1119 110.264 24.8134 108.63 24.8073C104.685 24.8073 102.325 26.6725 102.325 29.7945C102.325 32.9165 104.605 34.0367 106.361 34.6738L108.197 35.3283C109.976 35.9594 110.147 36.1352 110.147 36.465C110.147 36.9316 110.147 37.7105 107.917 37.7105C106.247 37.7062 104.611 37.2336 103.197 36.3458L101.909 35.606V40.3208L102.371 40.5601C104.085 41.4035 105.976 41.8317 107.889 41.8109C112.079 41.8109 114.581 39.8551 114.581 36.5851C114.61 33.5876 112.523 32.5292 110.004 31.5979V31.5971ZM124.844 31.5971L123.134 30.9434C121.594 30.3742 121.594 30.2036 121.594 29.9712C121.594 29.6065 121.594 28.9355 123.555 28.9355C124.963 28.9389 126.35 29.2758 127.602 29.919L128.822 30.4882V25.8987L128.252 25.6881C126.723 25.1119 125.103 24.8134 123.469 24.8073C119.524 24.8073 117.164 26.6725 117.164 29.7945C117.164 32.9165 119.445 34.0367 121.2 34.6738L123.036 35.3283C124.815 35.9594 124.986 36.1352 124.986 36.465C124.986 36.9316 124.986 37.7105 122.757 37.7105C121.086 37.7062 119.45 37.2336 118.037 36.3458L116.748 35.606V40.3208L117.21 40.5601C118.925 41.4035 120.815 41.8317 122.728 41.8109C126.918 41.8109 129.421 39.8551 129.421 36.5851C129.449 33.5876 127.391 32.5292 124.843 31.5979L124.844 31.5971Z" fill="#122F53"/>
<path d="M58.7024 41.5376C59.9837 41.5376 61.0223 40.5014 61.0223 39.2232C61.0223 37.9451 59.9837 36.9089 58.7024 36.9089C57.4211 36.9089 56.3825 37.9451 56.3825 39.2232C56.3825 40.5014 57.4211 41.5376 58.7024 41.5376Z" fill="url(#paint0_linear)"/>
<path d="M14.6315 45.3245C18.9547 45.3245 22.9236 42.7178 23.4803 39.5139L24.3789 31.5622C22.6915 32.4091 22.1471 34.2839 18.59 32.8278C18.59 32.8278 15.073 30.9138 14.0923 30.617C9.22651 29.1383 4.62067 33.1002 4.57704 33.1611L5.85523 39.4217C6.41711 42.6595 10.3572 45.3245 14.6315 45.3245Z" fill="url(#paint1_linear)"/>
<path d="M26.5087 18.3335C26.13 13.1504 22.4926 8.78029 17.4549 7.45646L17.7306 4.90366L19.9266 3.78698L20.0139 3.74259L21.573 2.96012C21.8967 2.79736 22.1428 2.51362 22.257 2.16983C22.3705 1.8269 22.3434 1.45264 22.1803 1.12886L21.9883 0.751124C21.9665 0.709346 21.943 0.668438 21.9177 0.629272C21.5407 0.0400311 20.7782 -0.168858 20.1526 0.146216L19.6815 0.383827L19.6474 0.400364L15.2013 2.6024C14.943 2.7199 14.765 2.96535 14.7345 3.24735L14.3227 7.04825C7.90121 7.06827 2.6698 12.0416 2.21262 18.3335C0.92745 18.5815 0 19.7026 0 21.0064V22.2867C0.00174497 23.742 1.15168 24.937 2.60872 25.0005L4.40866 38.9047C4.77074 43.2565 8.21443 46.5404 12.4146 46.5404H16.5414C20.7424 46.5404 24.1844 43.2591 24.5421 38.9543L26.349 24.9805C27.7031 24.8029 28.7169 23.654 28.7195 22.291V21.0116C28.7213 19.7052 27.793 18.5815 26.5078 18.3335H26.5087ZM14.3602 9.09014C19.637 9.09014 23.9706 13.1374 24.4496 18.2813H22.449C21.9796 14.2323 18.5446 11.0842 14.3628 11.0842C10.1819 11.0842 6.73819 14.2323 6.27141 18.2821H4.27081C4.74893 13.1382 9.0808 9.09101 14.3602 9.09101V9.09014ZM20.4972 18.2813H18.282C17.8562 16.463 16.2317 15.1775 14.3602 15.1775C12.4887 15.1775 10.8642 16.463 10.4384 18.2813H8.22403C8.68383 15.255 11.2917 13.019 14.3602 13.019C17.4287 13.019 20.0366 15.2558 20.4972 18.2813ZM5.68685 32.4361L4.7245 25.0136H12.3395L11.8466 29.6875C8.95255 29.5935 6.8996 31.1279 5.68685 32.4361ZM22.4542 38.7306C22.1838 41.9875 19.6405 44.4428 16.5405 44.4428H12.4154C9.31463 44.4428 6.77221 41.9875 6.49651 38.681L5.99483 34.8018C6.45376 34.0428 8.31564 31.3681 11.6668 31.4003L11.0474 37.2797C10.9662 38.0482 11.5081 38.7419 12.2593 38.8246L12.6807 38.8716C12.7278 38.8768 12.774 38.8803 12.8211 38.8803C13.5313 38.8742 14.1211 38.332 14.1866 37.627L14.7642 32.1375C14.8732 32.1863 14.9805 32.2307 15.0913 32.2855C18.9538 34.1716 21.6367 33.6041 23.2246 32.7773L22.4551 38.7306H22.4542ZM23.5221 30.4795C23.0021 31.0191 20.5941 33.0749 15.8417 30.7554C15.5381 30.6074 15.2432 30.4821 14.9517 30.3663L15.5154 25.0118H24.2289L23.5221 30.4795ZM26.6448 22.285C26.6448 22.459 26.5767 22.6261 26.4537 22.7489C26.3315 22.8725 26.164 22.9421 25.9904 22.943H2.73262C2.37054 22.943 2.07651 22.6496 2.07564 22.2884V21.0081C2.07651 20.6469 2.37054 20.3536 2.73262 20.3536H25.9904C26.3525 20.3536 26.6456 20.6469 26.6465 21.0081L26.6448 22.285Z" fill="#122F53"/>
<path d="M16.763 40.9335C16.1313 41.0702 15.73 41.6907 15.867 42.3209C16.0031 42.951 16.626 43.3514 17.2568 43.2165C17.8885 43.0807 18.2907 42.4593 18.1555 41.83C18.0901 41.5262 17.906 41.2617 17.6451 41.0937C17.3834 40.9257 17.0666 40.8674 16.763 40.9335ZM17.605 38.3311C17.3877 38.379 17.2211 38.5513 17.1809 38.7698C17.1417 38.9874 17.2377 39.2084 17.4252 39.3286C17.6111 39.4478 17.8528 39.4443 18.0351 39.3172C18.2175 39.191 18.3056 38.9674 18.2585 38.7515C18.1939 38.4556 17.9016 38.2676 17.605 38.332V38.3311ZM10.0109 41.6751C9.79014 41.7229 9.64967 41.9405 9.69766 42.1616C9.74564 42.3818 9.96376 42.5219 10.1845 42.4732C10.4061 42.4253 10.5457 42.2086 10.4986 41.9875C10.475 41.8822 10.4113 41.79 10.3197 41.7308C10.2281 41.6725 10.1173 41.6524 10.0109 41.6751ZM14.5504 39.0622C14.2433 39.1284 14.0068 39.3729 13.951 39.6811C13.8952 39.99 14.0313 40.3016 14.2956 40.4705C14.56 40.6402 14.9003 40.6341 15.1585 40.4557C15.4159 40.2764 15.5407 39.9604 15.4744 39.6549C15.3828 39.2372 14.9692 38.9717 14.5504 39.0622ZM9.93497 39.0622C9.51618 39.1536 9.25007 39.5662 9.34168 39.9839C9.43242 40.4017 9.84598 40.6672 10.2648 40.5758C10.6836 40.4853 10.9497 40.0727 10.8581 39.6541C10.8144 39.4539 10.6932 39.2781 10.5195 39.1667C10.3468 39.0561 10.1356 39.0187 9.93497 39.0622ZM17.1792 37.0273C17.6259 36.9307 17.9697 36.5747 18.0517 36.1273C18.132 35.6791 17.9348 35.2256 17.5509 34.9793C17.167 34.733 16.6714 34.7417 16.2962 35.0019C15.9211 35.2613 15.7405 35.7209 15.8373 36.1656C15.9699 36.7731 16.5702 37.1587 17.1801 37.0273H17.1792ZM12.0647 41.4906C11.7017 41.7177 11.5909 42.1956 11.8178 42.5576C12.0446 42.9197 12.5236 43.0311 12.8866 42.8048C13.2504 42.5794 13.3621 42.1024 13.137 41.7395C13.0279 41.5645 12.8534 41.4401 12.6528 41.3931C12.4512 41.3469 12.2401 41.3818 12.0647 41.4914V41.4906ZM19.8726 37.5356C20.0994 37.8977 20.5793 38.0082 20.9422 37.781C21.306 37.5547 21.416 37.076 21.1891 36.7131C20.9623 36.351 20.4824 36.2405 20.1186 36.4676C19.9441 36.5764 19.8193 36.7496 19.7731 36.9507C19.7268 37.1509 19.7626 37.3615 19.8726 37.5356ZM19.7705 39.7429C19.4066 39.9691 19.2958 40.4479 19.5236 40.8099C19.7504 41.1729 20.2294 41.2834 20.5932 41.0562C20.9571 40.8299 21.067 40.3512 20.8401 39.9892C20.7311 39.8151 20.5566 39.6906 20.3559 39.6445C20.1552 39.5984 19.9441 39.6341 19.7696 39.7429H19.7705ZM9.49786 36.5381C9.17242 36.0203 8.48927 35.8636 7.97101 36.1874C7.45188 36.512 7.29396 37.1935 7.61853 37.7105C7.94309 38.2284 8.62712 38.3859 9.14537 38.0622C9.3949 37.9064 9.57289 37.6583 9.63833 37.3728C9.70464 37.0874 9.65403 36.7862 9.49786 36.5373V36.5381Z" fill="#122F53"/>
<defs>
<linearGradient id="paint0_linear" x1="56.3882" y1="39.2232" x2="61.0223" y2="39.2232" gradientUnits="userSpaceOnUse">
<stop stop-color="#59C4C9"/>
<stop offset="0.37" stop-color="#41B1BE"/>
<stop offset="1" stop-color="#0F8BA8"/>
</linearGradient>
<linearGradient id="paint1_linear" x1="4.57704" y1="37.8064" x2="24.3783" y2="37.8064" gradientUnits="userSpaceOnUse">
<stop stop-color="#59C4C9"/>
<stop offset="0.37" stop-color="#41B1BE"/>
<stop offset="1" stop-color="#0F8BA8"/>
</linearGradient>
</defs>
</svg>

<svg width="130" height="47" fill="none" xmlns="http://www.w3.org/2000/svg"><path d="M41.88 20.138v4.277h6.339v17.077h4.434V24.415h6.34v-4.277H41.879zm36.376 1.24c-1.288-.888-3.216-1.36-5.593-1.36-1.071 0-6.35.114-6.572.12l-.838.017v21.337h4.464v-7.739h2.85a10.51 10.51 0 004.891-1.086 6.942 6.942 0 003.278-6.035c0-2.388-.832-4.156-2.48-5.254zm-8.55 3.037c.872 0 2.188-.063 2.73-.063 3.101 0 3.733.95 3.733 2.372.01.831-.37 1.62-1.025 2.132a5.866 5.866 0 01-2.943.569h-2.484l-.013-5.01h.001zm20.504.449a7.876 7.876 0 00-5.797 2.48 8.318 8.318 0 00-2.372 5.965 8.486 8.486 0 002.378 6.006 7.89 7.89 0 005.791 2.473 7.677 7.677 0 004.3-1.25v.687h4.405V25.228l-4.338.904a7.763 7.763 0 00-4.367-1.268zm2.976 5.328a4.417 4.417 0 011.204 3.117 4.457 4.457 0 01-1.204 3.145 3.807 3.807 0 01-5.609 0 4.448 4.448 0 01-1.198-3.151 4.405 4.405 0 011.198-3.116c.71-.8 1.73-1.257 2.802-1.257 1.071 0 2.091.457 2.801 1.257l.006.005zm16.818 1.405l-1.711-.654c-1.539-.569-1.539-.74-1.539-.972 0-.364 0-1.035 1.962-1.035a8.903 8.903 0 014.047.983l1.22.57v-4.59l-.57-.21a13.71 13.71 0 00-4.783-.882c-3.945 0-6.305 1.866-6.305 4.988 0 3.121 2.28 4.242 4.036 4.879l1.836.654c1.779.631 1.95.807 1.95 1.137 0 .467 0 1.245-2.23 1.245a8.92 8.92 0 01-4.72-1.364l-1.288-.74v4.715l.462.24a12.2 12.2 0 005.518 1.25c4.19 0 6.692-1.956 6.692-5.226.029-2.997-2.058-4.056-4.577-4.987zm14.84 0l-1.71-.654c-1.54-.569-1.54-.74-1.54-.972 0-.364 0-1.035 1.961-1.035a8.903 8.903 0 014.047.983l1.22.57v-4.59l-.57-.21a13.71 13.71 0 00-4.783-.882c-3.945 0-6.305 1.866-6.305 4.988 0 3.121 2.281 4.242 4.036 4.879l1.836.654c1.779.631 1.95.807 1.95 1.137 0 .467 0 1.245-2.229 1.245a8.915 8.915 0 01-4.72-1.364l-1.289-.74v4.715l.462.24a12.202 12.202 0 005.518 1.25c4.19 0 6.693-1.956 6.693-5.226.028-2.997-2.03-4.056-4.578-4.987h.001z" fill="#122F53"/><path d="M58.702 41.538a2.317 2.317 0 002.32-2.315 2.317 2.317 0 00-2.32-2.314 2.317 2.317 0 00-2.32 2.314 2.317 2.317 0 002.32 2.315z" fill="url(#paint0_linear)"/><path d="M14.632 45.325c4.323 0 8.292-2.607 8.848-5.811l.899-7.952c-1.688.847-2.232 2.722-5.789 1.266 0 0-3.517-1.914-4.498-2.211-4.865-1.479-9.471 2.483-9.515 2.544l1.278 6.26c.562 3.239 4.502 5.904 8.776 5.904z" fill="url(#paint1_linear)"/><path d="M26.509 18.334a12.17 12.17 0 00-9.054-10.878l.276-2.552 2.196-1.117.087-.044 1.559-.783a1.362 1.362 0 00.607-1.831L21.988.75a1.366 1.366 0 00-1.836-.605l-.47.238-.035.016-4.446 2.202a.805.805 0 00-.466.645l-.412 3.801C7.9 7.068 2.67 12.042 2.213 18.334A2.725 2.725 0 000 21.006v1.28A2.723 2.723 0 002.609 25l1.8 13.905c.362 4.352 3.805 7.635 8.006 7.635h4.126c4.201 0 7.643-3.28 8.001-7.586L26.35 24.98a2.72 2.72 0 002.37-2.689v-1.28a2.726 2.726 0 00-2.211-2.677zM14.36 9.09c5.277 0 9.61 4.047 10.09 9.191h-2.001c-.47-4.049-3.904-7.197-8.086-7.197a8.145 8.145 0 00-8.092 7.198h-2c.478-5.144 4.81-9.191 10.09-9.191zm6.137 9.191h-2.215a4.025 4.025 0 00-3.922-3.103 4.025 4.025 0 00-3.922 3.103H8.224a6.2 6.2 0 016.136-5.262 6.203 6.203 0 016.137 5.262zM5.687 32.436l-.963-7.422h7.615l-.492 4.674c-2.894-.095-4.947 1.44-6.16 2.748zm16.767 6.295c-.27 3.256-2.814 5.712-5.913 5.712h-4.126c-3.1 0-5.643-2.456-5.918-5.762l-.502-3.88c.459-.758 2.32-3.433 5.672-3.4l-.62 5.879c-.08.768.461 1.462 1.212 1.545l.422.047a1.383 1.383 0 001.506-1.245l.577-5.49c.11.05.216.094.327.148 3.863 1.887 6.546 1.32 8.134.492l-.77 5.954zm1.068-8.252c-.52.54-2.928 2.596-7.68.276a12.755 12.755 0 00-.89-.389l.563-5.354h8.714l-.707 5.468zm3.123-8.194a.655.655 0 01-.655.658H2.733a.657.657 0 01-.657-.655v-1.28c0-.361.295-.654.657-.654H25.99c.363 0 .656.293.657.654l-.002 1.277z" fill="#122F53"/><path d="M16.763 40.934a1.167 1.167 0 00-.896 1.387 1.171 1.171 0 002.288-.491 1.169 1.169 0 00-1.392-.896zm.842-2.603a.549.549 0 10.232 1.069.549.549 0 00-.232-1.068zm-7.594 3.344a.409.409 0 10.173.8.409.409 0 00-.173-.8zm4.54-2.613a.775.775 0 10.607 1.394.776.776 0 00-.608-1.394zm-4.616 0a.775.775 0 10.33 1.514.774.774 0 10-.33-1.514zm7.244-2.035a1.13 1.13 0 00.873-.9 1.128 1.128 0 10-2.215.039 1.13 1.13 0 001.343.861zm-5.114 4.464a.774.774 0 10.822 1.314.773.773 0 10-.822-1.314zm7.808-3.955a.777.777 0 001.316-.823.778.778 0 00-1.416.238.77.77 0 00.1.585zm-.103 2.207a.772.772 0 00-.246 1.067.776.776 0 001.316-.82.777.777 0 00-1.07-.247zM9.498 36.538a1.11 1.11 0 00-1.527-.35 1.104 1.104 0 00-.352 1.523 1.11 1.11 0 002.02-.338 1.104 1.104 0 00-.141-.836v.001z" fill="#122F53"/><defs><linearGradient id="paint0_linear" x1="56.388" y1="39.223" x2="61.022" y2="39.223" gradientUnits="userSpaceOnUse"><stop stop-color="#59C4C9"/><stop offset=".37" stop-color="#41B1BE"/><stop offset="1" stop-color="#0F8BA8"/></linearGradient><linearGradient id="paint1_linear" x1="4.577" y1="37.806" x2="24.378" y2="37.806" gradientUnits="userSpaceOnUse"><stop stop-color="#59C4C9"/><stop offset=".37" stop-color="#41B1BE"/><stop offset="1" stop-color="#0F8BA8"/></linearGradient></defs></svg>
